X:7542
T:Three Scones of Boxty, The
O:england
R:reel
H:See also #748
D:Altan: Horse with a Heart
M:C|
K:Amix
EF|:GFEd cBAc|BAGB AGEF|GFEd cBAc|1 BAGE EDEF:|2 BAGE EDD2||
|:cded cA~A2|BG~G2 A2AB|1 cded cA~A2|BAGE EDD2:|2 cdef g2ed|cAGE EDEF||


